X:1
T: Currie's Rambles
C:
R:Strathspey
Q: 128
K:D
M:4/4
L:1/16
|:A,2|D4 F3D A3D FA3|Bd3 ce3 d3c d3f|fd3 cd3 BA3 B3A|G2F2 E2D2 C2E2 C2A,2|
D4 F3D A3D FA3|Bd3 ce3 d3c d3f|fd3 cd3 BA3 B3A|G3E GFED C2E2 D2G2|
F2A2 G3B BAGF GFED|FA3 G3B A4 A3A|A2d2 f2d2 c2d2 B2A2|G2F2 E2D2 C2D2 E2G2|
FED2 A2D2 B2D2 c2D2|d2D2 e2D2 f2D2 g3b|((3a2f2d2) ((3g2e2c2) ((3f2d2B2) ((3e2c2A2) |((3d2B2G2) ((3A2F2D2) E4 D2:|
